X:1
T: Thrums March
C:
R:Jig
Q:180
K:G
M:6/8
L:1/16
|:F2|G2D2G2 B2A2G2|E2C2E2 D4c2|B2A2G2 d2B2G2|F2A2A2 A2B2c2|
B2A2B2 G2F2G2|E2C2E2 D4c2|B2A2G2 F2G2A2|A2G2G2 G4:|
|:g2|B2c2d2 g4d2|e2c2e2 d4c2|B2A2G2 d2B2G2|
|1F2A2A2 A4c2|B2c2d2 g4d2|e2c2e2 d4c2|B2A2G2 F2G2A2|A2G2G2 G4:|
|2F2A2A2 A2B2c2|B2A2B2 G2F2G2|E2C2E2 D4c2|B2A2G2 F2G2A2|A2G2G2 G4||
